X: 4304
T: Boer Daar Ligt Een Kip
R: polka
M: 2/4
K: Dmajor
"D" DE FG|AG FE|DE FG|"A" A2 A2|
"D" DE FG|AG FE|DE FD|"G" G2 G2:|
"G" dB AG|"D" BA A2|DE FG|BA A2|
"G" dB AG|"D" BA A2|DE FD|"G" G2 G2:|
"D" A2 Af|ed "G" Bd|"D" A2 Af|ed "G" B2|
"D" A2 Af|ed "G" ef|"A" A2 a>f|"D" ed d2:|
"D" fa "A" e>f|"D" ed "G" Bd|"D" fa "A" e>f|"D" ed d2|
"D" fa "A" e>f|"D" ed "G" Bd|"A" A2 a>f|"D" ed d2:|
"D" DF AF/A/|dc Bc|"A" EF GE/G/|"D" BA F2|
"D" DF AF/A/|dc Bc|"A" EF GE|"D" DF D2:|
"D" fA fA|fA f2|"A" eA eA|B/c/d e2|
"D" fA fA|fA f2|"A" eA B/c/d|"D" ed d2:|

